public/avatar/item0/44.svg

<svg xmlns:xlink="http://www.w3.org/1999/xlink" height="58.65" width="49.15" xmlns="http://www.w3.org/2000/svg"><use height="16.75" transform="translate(8.95 20.7)" width="30.3" xlink:href="#a"/><defs><g id="a" fill-rule="evenodd"><path d="m12.35 9.85-.05-.15-.85.15-.2-.65q-.5-1.95-2.05-3.1l-1.3-.7Q4.4 4.2-.05 4.1q-3.8-.05-7.85 1.25-2.6 1.05-3.4 3.85l-.25.65-.75-.15-1.1 2.35-.15.5 1.35.25h.55l.15.9.55 1.75q.55 1.5 1.5 2Q-6.7 18.8-1.25 16h.05l.45-.15.1-.05.35-.1h.75l.2.1.45.15.3.15q5.35 2.4 7.85 1.45.5-.1 1.15-1.4l.05-.1.15-.1q.9-.75 1.05-2.5l.05-.6.6-.1 1.25-.2-1.2-2.7m.1-1.65q.8 0 1.1.65l.2.45q1.4 2.8 1.4 3.55 0 1-2.15 1.35-.3 1.85-1.4 2.85l.1-.2-.15.25.05-.05q-.8 1.55-1.8 1.9-3.3 1.25-9-1.5l-.2-.1-.55-.2-.7.2q-6 3.1-9.45 1.45-1.6-.8-2.2-2.8l-.6-1.8q-2.25-.25-2.25-1.35l.4-1.4 1.2-2.6q.2-.6 1.05-.65 1.15-3.1 4.1-4.25Q-4.25 2.55 0 2.6q4.7.1 8.4 1.35.9.4 1.7.95 1.55 1.1 2.35 3.3" transform="translate(15.15 -2.6)"/><path d="M7.45 18.55Q6.2 18.6 4 17.5l-.75-.4-1.4-.45.1-.3q.75.15 1.35.5l3.65.25q2.4-.45 4.4-1.45l.15.2q-1.9 2.6-4.05 2.7M7 17.4q-1.1.2-2.55 0 3.9 1.85 6.4-1.25-1.7.8-3.85 1.25" transform="translate(15.15 -2.6)"/><path d="M7.7 6.05q-3.15-1.2-5.6-.9l-2.1.1-2.1-.1q-2.5-.3-5.65.9-3.85 1.5-3.7 5.75.15 3.5 1.75 4.7l6.1-.15 1.55-.4q1.2-1.2 2.05-1.1 1.15.15 1.95 1.05l1.6.45 6.1.15q1.7-1.2 1.75-4.7.15-4.25-3.7-5.75M0 5.1v-.15l2.05-.05q2.65-.3 5.75.9 4.05 1.45 3.9 6-.15 3.65-1.9 4.9-1.75 1.3-6.35-.1l-1.65-.45q-.75-.85-1.85-1Q-.8 15-1.9 16.2l-1.6.4q-4.6 1.4-6.35.1-1.75-1.25-1.9-4.9-.15-4.5 3.9-6.05 3.1-1.15 5.75-.85l2.05.05.05.15" transform="translate(15.15 -2.6)"/><path d="m1.2 15.7.35.15q4.65 2.25 7.7 1.1 1.5-.6 1.95-1.75l1-1.2q-1.65 3.85-2.65 4.25-3.1 1.2-8.45-1.5l-.35-.15-1.1-.1-.45.15q-5.8 2.95-8.95 1.45-1.2-.55-1.8-2.2l-.4-1.6.85.8.4.7 1.4 1.15q2.95 1.45 8.05-1.25h.1l.45-.15 1.9.15" fill="#00387a" transform="translate(15.15 -2.6)"/><path d="M0 14.05q1.1.15 1.75.9 1.2.2 5.05 1.35 3.4.2 3.7-4.15l1.9-.6v.05q.15 3.6-1.25 4.85Q8.65 18.6 1 16.7l-1-.25-1 .25q-6.25 1.65-8.75.7-1.9-.7-2.5-3.55l2.1.05q.8 2.8 3.9 2.35 1.7-.25 4.5-1.3 1-1 1.75-.9" fill="#005ad2" transform="translate(15.15 -2.6)"/><path d="M0 3.35q4.6.1 8.15 1.3 3.9 1.55 4.25 6.9l-1.9.6v-.35q.15-3.85-3.45-5.2-2.55-.95-4.25-.85L0 5.9l-2.8-.15q-1.65-.1-4.25.85-3.55 1.35-3.4 5.2l.3 2.1-2.1-.05-.15-2.25q.25-5.4 4.2-6.95 4.25-1.4 8.2-1.3" fill="#0078f9" transform="translate(15.15 -2.6)"/><path d="M-11.8 9.5q-1 .8-1.5.55l.4-.85 1.2-.1-.1.4" fill="#003fc1" transform="translate(15.15 -2.6)"/><path d="M-11.8 9.5q-.3 1.3-.2 2.95l-2.1-.7.8-1.7q.5.25 1.5-.55" fill="#002f90" transform="translate(15.15 -2.6)"/><path d="m-14.1 11.75 2.1.7.15 1.1q-2.55-.1-2.55-.7l.3-1.1" fill="#001c58" transform="translate(15.15 -2.6)"/><path d="m.25 4.45-2.2-.1q-3.4.05-7.95 1.9.65-1.35 5.45-2.15l4.7-.55 4.7.55q4.85.8 5.45 2.15-4.55-1.85-8-1.9l-2.15.1m-11.65 10.8 4.45 1.45 4.2-.25q-1.2.8-3.7.9-3.45.2-4.95-2.1" fill="#0cabfb" transform="translate(15.15 -2.6)"/><path d="M11.2 15.75Q10 17.2 7.7 17.4l.65-.95 2.85-.7" fill="#008be2" transform="translate(15.15 -2.6)"/><path d="m6.6 16.7 1.75-.25-.65.95q-3.2.15-5.25-1.45l1.15.45 3 .3" fill="#0cabfb" transform="translate(15.15 -2.6)"/><path d="M0 5.1q5.7.2 8.05 1.45 2.9 1.5 3.3 5.4.35 3.75-3.65 4.4-3.65.65-5.6-1.3 4.75.15 5.85-.6 2.85-1.6 1.6-5.2Q9 7.7 4.45 6.85L0 6.3l-4.45.55q-4.55.85-5.1 2.4-1.5 3.95 1.4 5.55l6 .25q-2.25 1.85-5.75 1.3-3.8-.65-3.45-4.4.35-3.85 3.5-5.35Q-5.5 5.4 0 5.1" fill="#00356e" transform="translate(15.15 -2.6)"/><path d="m0 5.75 3.35.15Q1.15 10 .1 14.6H0l-1.15.1q-.95.2-.9.55-3.2.3-5.25.05-3.85-.55-3.4-3.45.65-4.05 3.25-5.05Q-4.05 5.65 0 5.75" fill="#00a0fa" transform="translate(15.15 -2.6)"/><path d="M5.85 6.35q-2.6 2.6-3.35 8.9h-.45Q2.1 14.8.1 14.6 1.15 10 3.35 5.9l2.5.45" fill="#002f90" transform="translate(15.15 -2.6)"/><path d="M10.65 11.85q.75 3.6-8.15 3.4.75-6.3 3.35-8.9l1.55.45q2.5.95 3.25 5.05M-7.45 6.8l2.3-.6q-3.1 4.6-3.4 8.8l-1.6-.7q-.65-.7-.55-2.6.25-3.85 3.25-4.9" fill="#0064ef" transform="translate(15.15 -2.6)"/><path d="M-.8 6.05Q-9.3 8.55-10 14q-.3-1.1-.15-2.4Q-10 8.1-7.2 7q3-.95 6.4-.95" fill="#0086fa" transform="translate(15.15 -2.6)"/><path d="m1.3 5.75.75.05q-2.3 2.15-4.9 9.6l-2.15.8q1.5-5.7 6.3-10.45" fill="#fff" transform="translate(15.15 -2.6)"/><path d="M10 11.15q.3 5.15-4.35 3.75 2.25-1.05 2.8-2.3.8-1.7-.4-5.3 1.8 1.1 1.95 3.85" fill="#002f90" transform="translate(15.15 -2.6)"/><path d="M-.5 6.45q-4.8.6-8.35 4.15-1.25 1.25-.65-.4 1.15-2.55 5.45-3.4l3.55-.35" fill="#fff" transform="translate(15.15 -2.6)"/><path d="m2.15 14.2.25-1 4.95 1-.15 1-5.05-1" fill="#002f90" transform="translate(15.15 -2.6)"/><path d="m-11 7.55.9-1.3Q-8.8 5-6.6 4.65L-7 5.7q-1.1.2-2.15 1.2l-.9 1-.95-.35" fill="#bffdfe" transform="translate(15.15 -2.6)"/><path d="M13.1 9.65q1.3 2.6 1.3 3.2 0 .6-2.6.7l.2-2.3 1.1-1.6" fill="#001c58" transform="translate(15.15 -2.6)"/><path d="m12.85 9.2.25.45-1.1 1.6q0-1.15-.35-2.15l1.2.1" fill="#002f90" transform="translate(15.15 -2.6)"/><path d="M2.65 15.05q.1-1.05 2.95-5.3l.8.55q-2.8 4.1-2.95 5.3l-.8-.55" fill="#fff" transform="translate(15.15 -2.6)"/></g></defs></svg>

<?xml version="1.0" encoding="UTF-8" standalone="no"?>
<svg xmlns:xlink="http://www.w3.org/1999/xlink" height="58.65px" width="49.15px" xmlns="http://www.w3.org/2000/svg">
  <g transform="matrix(1.0, 0.0, 0.0, 1.0, 24.1, 18.1)">
    <use height="16.75" transform="matrix(1.0, 0.0, 0.0, 1.0, -15.15, 2.6)" width="30.3" xlink:href="#shape0"/>
  </g>
  <defs>
    <g id="shape0" transform="matrix(1.0, 0.0, 0.0, 1.0, 15.15, -2.6)">
      <path d="M12.35 9.85 L12.3 9.7 11.45 9.85 11.25 9.2 Q10.75 7.25 9.2 6.1 L7.9 5.4 Q4.4 4.2 -0.05 4.1 -3.85 4.05 -7.9 5.35 -10.5 6.4 -11.3 9.2 L-11.55 9.85 -12.3 9.7 -13.4 12.05 -13.55 12.55 -12.2 12.8 -11.65 12.8 -11.5 13.7 -10.95 15.45 Q-10.4 16.95 -9.45 17.45 -6.7 18.8 -1.25 16.0 L-1.2 16.0 -0.75 15.85 -0.65 15.8 -0.3 15.7 0.45 15.7 0.65 15.8 1.1 15.95 1.4 16.1 Q6.75 18.5 9.25 17.55 9.75 17.45 10.4 16.15 L10.45 16.05 10.6 15.95 Q11.5 15.2 11.65 13.45 L11.7 12.85 12.3 12.75 13.55 12.55 12.35 9.85 M12.45 8.2 Q13.25 8.2 13.55 8.85 L13.75 9.3 Q15.15 12.1 15.15 12.85 15.15 13.85 13.0 14.2 12.7 16.05 11.6 17.05 L11.7 16.85 11.55 17.1 11.6 17.05 Q10.8 18.6 9.8 18.95 6.5 20.2 0.8 17.45 L0.6 17.35 0.05 17.15 -0.65 17.35 Q-6.65 20.45 -10.1 18.8 -11.7 18.0 -12.3 16.0 L-12.9 14.2 Q-15.15 13.95 -15.15 12.85 L-14.75 11.45 -13.55 8.85 Q-13.35 8.25 -12.5 8.2 -11.35 5.1 -8.4 3.95 -4.25 2.55 0.0 2.6 4.7 2.7 8.4 3.95 9.3 4.35 10.1 4.9 11.65 6.0 12.45 8.2" fill="#000000" fill-rule="evenodd" stroke="none"/>
      <path d="M7.45 18.55 Q6.2 18.6 4.0 17.5 L3.25 17.1 1.85 16.65 1.95 16.35 Q2.7 16.5 3.3 16.85 L6.95 17.1 Q9.35 16.65 11.35 15.65 L11.5 15.85 Q9.6 18.45 7.45 18.55 M7.0 17.4 Q5.9 17.6 4.45 17.4 8.35 19.25 10.85 16.15 9.15 16.95 7.0 17.4" fill="#000000" fill-rule="evenodd" stroke="none"/>
      <path d="M7.7 6.05 Q4.55 4.85 2.1 5.15 L0.0 5.25 -2.1 5.15 Q-4.6 4.85 -7.75 6.05 -11.6 7.55 -11.45 11.8 -11.3 15.3 -9.7 16.5 L-3.6 16.35 -2.05 15.95 Q-0.85 14.75 0.0 14.85 1.15 15.0 1.95 15.9 L3.55 16.35 9.65 16.5 Q11.35 15.3 11.4 11.8 11.55 7.55 7.7 6.05 M0.0 5.1 L0.0 4.95 2.05 4.9 Q4.7 4.6 7.8 5.8 11.85 7.25 11.7 11.8 11.55 15.45 9.8 16.7 8.05 18.0 3.45 16.6 L1.8 16.15 Q1.05 15.3 -0.05 15.15 -0.8 15.0 -1.9 16.2 L-3.5 16.6 Q-8.1 18.0 -9.85 16.7 -11.6 15.45 -11.75 11.8 -11.9 7.3 -7.85 5.75 -4.75 4.6 -2.1 4.9 L-0.05 4.95 0.0 5.1" fill="#000000" fill-rule="evenodd" stroke="none"/>
      <path d="M1.2 15.7 L1.55 15.85 Q6.2 18.1 9.25 16.95 10.75 16.35 11.2 15.2 L12.2 14.0 Q10.55 17.85 9.55 18.25 6.45 19.45 1.1 16.75 L0.75 16.6 -0.35 16.5 -0.8 16.65 Q-6.6 19.6 -9.75 18.1 -10.95 17.55 -11.55 15.9 L-11.95 14.3 -11.1 15.1 -10.7 15.8 -9.3 16.95 Q-6.35 18.4 -1.25 15.7 L-1.15 15.7 -0.7 15.55 1.2 15.7" fill="#00387a" fill-rule="evenodd" stroke="none"/>
      <path d="M0.0 14.05 Q1.1 14.2 1.75 14.95 2.95 15.15 6.8 16.3 10.2 16.5 10.5 12.15 L12.4 11.55 12.4 11.6 Q12.55 15.2 11.15 16.45 8.65 18.6 1.0 16.7 L0.0 16.45 -1.0 16.7 Q-7.25 18.35 -9.75 17.4 -11.65 16.7 -12.25 13.85 L-10.15 13.9 Q-9.35 16.7 -6.25 16.25 -4.55 16.0 -1.75 14.95 -0.75 13.95 0.0 14.05" fill="#005ad2" fill-rule="evenodd" stroke="none"/>
      <path d="M0.0 3.35 Q4.6 3.45 8.15 4.65 12.05 6.2 12.4 11.55 L10.5 12.15 10.5 11.8 Q10.65 7.95 7.05 6.6 4.5 5.65 2.8 5.75 L0.0 5.9 -2.8 5.75 Q-4.45 5.65 -7.05 6.6 -10.6 7.95 -10.45 11.8 L-10.15 13.9 -12.25 13.85 -12.4 11.6 Q-12.15 6.2 -8.2 4.65 -3.95 3.25 0.0 3.35" fill="#0078f9" fill-rule="evenodd" stroke="none"/>
      <path d="M-11.8 9.5 Q-12.8 10.3 -13.3 10.05 L-12.9 9.2 -11.7 9.1 -11.8 9.5" fill="#003fc1" fill-rule="evenodd" stroke="none"/>
      <path d="M-11.8 9.5 Q-12.1 10.8 -12.0 12.45 L-14.1 11.75 -13.3 10.05 Q-12.8 10.3 -11.8 9.5" fill="#002f90" fill-rule="evenodd" stroke="none"/>
      <path d="M-14.1 11.75 L-12.0 12.45 -11.85 13.55 Q-14.4 13.45 -14.4 12.85 L-14.1 11.75" fill="#001c58" fill-rule="evenodd" stroke="none"/>
      <path d="M0.25 4.45 L-1.95 4.35 Q-5.35 4.4 -9.9 6.25 -9.25 4.9 -4.45 4.1 L0.25 3.55 4.95 4.1 Q9.8 4.9 10.4 6.25 5.85 4.4 2.4 4.35 L0.25 4.45" fill="#0cabfb" fill-rule="evenodd" stroke="none"/>
      <path d="M-11.4 15.25 L-6.95 16.7 -2.75 16.45 Q-3.95 17.25 -6.45 17.35 -9.9 17.55 -11.4 15.25" fill="#0cabfb" fill-rule="evenodd" stroke="none"/>
      <path d="M11.2 15.75 Q10.0 17.2 7.7 17.4 L8.35 16.45 11.2 15.75" fill="#008be2" fill-rule="evenodd" stroke="none"/>
      <path d="M6.6 16.7 L8.35 16.45 7.7 17.4 Q4.5 17.55 2.45 15.95 L3.6 16.4 6.6 16.7" fill="#0cabfb" fill-rule="evenodd" stroke="none"/>
      <path d="M0.0 5.1 Q5.7 5.3 8.05 6.55 10.95 8.05 11.35 11.95 11.7 15.7 7.7 16.35 4.05 17.0 2.1 15.05 6.85 15.2 7.95 14.45 10.8 12.85 9.55 9.25 9.0 7.7 4.45 6.85 L0.0 6.3 -4.45 6.85 Q-9.0 7.7 -9.55 9.25 -11.05 13.2 -8.15 14.8 L-2.15 15.05 Q-4.4 16.9 -7.9 16.35 -11.7 15.7 -11.35 11.95 -11.0 8.1 -7.85 6.6 -5.5 5.4 0.0 5.1" fill="#00356e" fill-rule="evenodd" stroke="none"/>
      <path d="M0.0 5.75 L3.35 5.9 Q1.15 10.0 0.1 14.6 L0.0 14.6 -1.15 14.7 Q-2.1 14.9 -2.05 15.25 -5.25 15.55 -7.3 15.3 -11.15 14.75 -10.7 11.85 -10.05 7.8 -7.45 6.8 -4.05 5.65 0.0 5.75" fill="#00a0fa" fill-rule="evenodd" stroke="none"/>
      <path d="M5.85 6.35 Q3.25 8.95 2.5 15.25 L2.05 15.25 Q2.1 14.8 0.1 14.6 1.15 10.0 3.35 5.9 L5.85 6.35" fill="#002f90" fill-rule="evenodd" stroke="none"/>
      <path d="M10.65 11.85 Q11.4 15.45 2.5 15.25 3.25 8.95 5.85 6.35 L7.4 6.8 Q9.9 7.75 10.65 11.85" fill="#0064ef" fill-rule="evenodd" stroke="none"/>
      <path d="M-7.45 6.8 L-5.15 6.2 Q-8.25 10.8 -8.55 15.0 L-10.15 14.3 Q-10.8 13.6 -10.7 11.7 -10.45 7.85 -7.45 6.8" fill="#0064ef" fill-rule="evenodd" stroke="none"/>
      <path d="M-0.8 6.05 Q-9.3 8.55 -10.0 14.0 -10.3 12.9 -10.15 11.6 -10.0 8.1 -7.2 7.0 -4.2 6.05 -0.8 6.05" fill="#0086fa" fill-rule="evenodd" stroke="none"/>
      <path d="M1.3 5.75 L2.05 5.8 Q-0.25 7.95 -2.85 15.4 L-5.0 16.2 Q-3.5 10.5 1.3 5.75" fill="#ffffff" fill-rule="evenodd" stroke="none"/>
      <path d="M10.0 11.15 Q10.3 16.3 5.65 14.9 7.9 13.85 8.45 12.6 9.25 10.9 8.05 7.3 9.85 8.4 10.0 11.15" fill="#002f90" fill-rule="evenodd" stroke="none"/>
      <path d="M-0.5 6.45 Q-5.3 7.05 -8.85 10.6 -10.1 11.85 -9.5 10.2 -8.35 7.65 -4.05 6.8 L-0.5 6.45" fill="#ffffff" fill-rule="evenodd" stroke="none"/>
      <path d="M2.15 14.2 L2.4 13.2 7.35 14.2 7.2 15.2 2.15 14.2" fill="#002f90" fill-rule="evenodd" stroke="none"/>
      <path d="M-11.0 7.55 L-10.1 6.25 Q-8.8 5.0 -6.6 4.65 L-7.0 5.7 Q-8.1 5.9 -9.15 6.9 L-10.05 7.9 -11.0 7.55" fill="#bffdfe" fill-rule="evenodd" stroke="none"/>
      <path d="M13.1 9.65 Q14.4 12.25 14.4 12.85 14.4 13.45 11.8 13.55 L12.0 11.25 13.1 9.65" fill="#001c58" fill-rule="evenodd" stroke="none"/>
      <path d="M12.85 9.2 L13.1 9.65 12.0 11.25 Q12.0 10.1 11.65 9.1 L12.85 9.2" fill="#002f90" fill-rule="evenodd" stroke="none"/>
      <path d="M2.65 15.05 Q2.75 14.0 5.6 9.75 L6.4 10.3 Q3.6 14.4 3.45 15.6 L2.65 15.05" fill="#ffffff" fill-rule="evenodd" stroke="none"/>
    </g>
  </defs>
</svg>
